Sources/FrostedUI/Resources/Icons.xcassets/arrowDownAngleRight24.imageset/arrow-down-angle-right-24.svg

<svg width="24" height="24" viewBox="0 0 24 24" fill="none" xmlns="http://www.w3.org/2000/svg" data-fui-icon="true">
  <path
    d="M1.75 4C1.33579 4 1 4.33579 1 4.75V13.375C1 14.8247 2.17525 16 3.625 16H20.3613L17.2344 18.9551C16.9336 19.2396 16.9206 19.7147 17.2051 20.0156C17.4896 20.3164 17.9647 20.3294 18.2656 20.0449L22.7617 15.7949L22.8145 15.7393C22.9311 15.6038 22.9961 15.4305 22.9961 15.25C22.9961 15.0438 22.9115 14.8467 22.7617 14.7051L18.2656 10.4551C17.9647 10.1706 17.4896 10.1836 17.2051 10.4844C16.9206 10.7853 16.9336 11.2604 17.2344 11.5449L20.3613 14.5H3.625C3.00368 14.5 2.5 13.9963 2.5 13.375V4.75C2.5 4.33579 2.16421 4 1.75 4Z"
    fill="currentColor"
  />
</svg>

<svg xmlns="http://www.w3.org/2000/svg" width="24" height="24" fill="none" data-fui-icon="true" viewBox="0 0 24 24"><path fill="currentColor" d="M1.75 4a.75.75 0 0 0-.75.75v8.625A2.625 2.625 0 0 0 3.625 16h16.736l-3.127 2.955a.75.75 0 0 0 1.032 1.09l4.496-4.25.052-.056a.75.75 0 0 0-.052-1.034l-4.496-4.25a.75.75 0 0 0-1.032 1.09l3.127 2.955H3.625A1.125 1.125 0 0 1 2.5 13.375V4.75A.75.75 0 0 0 1.75 4"/></svg>
